Costumes/N-glow.svg

<?xml version="1.0" encoding="UTF-8" standalone="no"?>
<svg
   version="1.1"
   width="75.309998"
   height="78.32402"
   id="svg8"
   sodipodi:docname="N-glow.svg"
   xmlns:inkscape="http://www.inkscape.org/namespaces/inkscape"
   xmlns:sodipodi="http://sodipodi.sourceforge.net/DTD/sodipodi-0.dtd"
   xmlns="http://www.w3.org/2000/svg"
   xmlns:svg="http://www.w3.org/2000/svg">
  <defs
     id="defs12" />
  <sodipodi:namedview
     id="namedview10"
     pagecolor="#ffffff"
     bordercolor="#000000"
     borderopacity="0.25"
     inkscape:showpageshadow="2"
     inkscape:pageopacity="0.0"
     inkscape:pagecheckerboard="0"
     inkscape:deskcolor="#d1d1d1" />
  <!-- Exported by Scratch - http://scratch.mit.edu/ -->
  <g
     id="ID0.8442582632414997"
     transform="translate(0,1.8642787e-5)">
    <g
       id="ID0.9731424255296588">
      <g
         id="ID0.1037183185108006">
        <path
           id="ID0.6886274544522166"
           fill="#00cccc"
           d="m 75.31,13.754 c 0,2.93 -1.05,5.7 -2.96,7.91 -1.71,2.09 -3.9,3.69 -6.4,4.72 0.05,2.27 0.12,5.04 0.21,8.26 v 4.83 c 0.27,6.31 0.39,8.83 0.44,9.83 0.05,0.38 0.08,0.77 0.09,1.17 0.06,3.07 -0.03,7.46 -0.27,13.43 -0.02,0.46 -0.07,0.92 -0.15,1.37 -0.43,2.57 -1.6,5.07 -3.48,7.42 -2.49,3.1 -5.92,5.07 -9.68,5.54 -0.46,0.06 -0.92,0.09 -1.38,0.09 -2.17,0 -3.67,-0.56 -6.15,-1.49 -3.04,-1.14 -5.4,-3.56 -6.49,-6.58 -2.48,0.93 -5.05,1.3 -7.62,1.09 -1.22,-0.06 -3.02,0.03 -5.31,0.25 -0.34,0.04 -1.4,0.2 -3.79,0.73 -0.12,0.03 -0.24,0.05 -0.36,0.07 -2.46,0.47 -4.84,0.65 -7,0.56 -0.16,-0.01 -0.33,-0.02 -0.49,-0.04 -6.96,-0.61 -13.99,-5.33 -13.99,-14.47 0,-1.54 0.25,-3.06 0.74,-4.54 0.31,-0.91 0.73,-1.77 1.26,-2.58 1.26,-1.92 3.81,-4.78 8.29,-6.2 v -1.72 c 0,-0.81 0.09,-1.62 0.27,-2.4 l -0.16,-2.69 c 0,-0.07 -0.01,-0.14 -0.01,-0.22 -0.05,-1.22 -0.13,-2.31 -0.26,-3.24 -0.04,-0.29 -0.07,-0.58 -0.08,-0.87 -0.04,-0.57 -0.07,-1.19 -0.11,-1.87 C 4.23,30.534 0,25.104 0,18.064 c 0,-3.3 1.35,-6.33 4,-8.99 2.05,-2.07 4.36,-3.37 6.86,-3.89 1.8,-0.38 3.83,-0.47 7.1,-0.32 0.33,0 0.99,-0.03 2.19,-0.1 1.65,-0.11 2.8,-0.16 3.64,-0.16 2.95,0 5.38,1.11 7.13,2.13 2.6,-3.05 6.1,-4.94 10.15,-5.47 0.29,-0.03 0.57,-0.06 0.86,-0.08 l 3.33,-0.17 c 0.12,-0.01 0.24,-0.01 0.36,-0.01 2.69,-0.06 7.14,-0.36 13.24,-0.92 3.33,-0.36 6.66,0.44 9.73,2.34 4.27,2.63 6.72,6.76 6.72,11.33 z" />
      </g>
    </g>
    <g
       id="ID0.6217719060368836">
      <path
         id="ID0.2878211308270693"
         fill="#ffffff"
         d="m 63.957,14.549 c -0.939,1.231 -2.287,1.936 -4.047,2.111 -2.874,0.176 -4.516,0.323 -4.926,0.439 -0.059,1.231 -0.088,3.197 -0.088,5.894 0.029,2.757 0.117,6.744 0.264,11.963 0,1.114 0,2.697 0,4.75 0.353,8.327 0.528,11.992 0.528,10.994 0.058,2.815 -0.03,7.067 -0.264,12.755 -0.118,0.704 -0.528,1.495 -1.231,2.375 -0.704,0.88 -1.526,1.377 -2.463,1.495 -0.118,0 -0.88,-0.264 -2.287,-0.791 C 49.267,65.772 49.032,65.126 48.739,64.598 47.565,62.839 45.982,60.347 43.99,57.121 42.699,54.6 40.676,50.818 37.921,45.773 35.985,43.077 33.083,38.737 29.213,32.755 28.802,31.935 28.098,30.703 27.102,29.061 h -0.176 c -0.176,2.581 -0.147,5.189 0.088,7.828 0,0.118 0.044,0.323 0.132,0.616 0.088,0.294 0.132,0.527 0.132,0.703 v 6.069 c 0,2.815 -0.118,5.044 -0.352,6.686 0.059,0.821 0.207,2.022 0.443,3.606 0.827,0.47 1.832,0.703 3.015,0.703 0.473,0 1.122,-0.058 1.95,-0.176 0.827,-0.117 1.448,-0.176 1.862,-0.176 1.714,0 2.954,0.615 3.725,1.847 0.292,1.174 -0.323,2.111 -1.848,2.815 -1.29,0.646 -2.551,0.909 -3.782,0.791 -1.759,-0.116 -4.193,-0.023 -7.301,0.279 -1.114,0.125 -2.786,0.436 -5.014,0.932 -1.643,0.309 -3.138,0.432 -4.486,0.373 -2.639,-0.234 -3.958,-1.407 -3.958,-3.519 0,-0.352 0.058,-0.704 0.175,-1.056 0.929,-1.407 2.587,-2.111 4.971,-2.111 0.29,0 0.755,0 1.396,0 0.581,0 1.017,0 1.309,0 1.162,0 1.976,-0.204 2.441,-0.615 0,-0.353 0,-0.938 0,-1.76 v -9.499 c 0.234,-0.646 0.322,-1.554 0.265,-2.728 -0.06,-0.996 -0.118,-1.992 -0.176,-2.99 -0.06,-1.583 -0.177,-3.02 -0.353,-4.311 -0.118,-2.11 -0.264,-4.926 -0.439,-8.443 0,0.176 0.028,-0.381 0.088,-1.672 0.058,-0.762 -0.132,-1.289 -0.571,-1.583 -0.44,-0.293 -1.13,-0.44 -2.067,-0.44 -0.47,0 -1.174,0.06 -2.111,0.177 -0.938,0.118 -1.643,0.176 -2.111,0.176 -2.229,0 -3.342,-1.173 -3.342,-3.519 0,-0.293 0.262,-0.704 0.787,-1.231 0.525,-0.528 0.964,-0.82 1.314,-0.88 0.758,-0.176 2.305,-0.204 4.641,-0.088 0.7,0 1.736,-0.044 3.107,-0.132 1.372,-0.088 2.351,-0.132 2.935,-0.132 0.408,0 1.079,0.298 2.014,0.895 0.935,0.597 1.576,1.191 1.927,1.787 0.059,0 1.714,2.955 4.964,8.861 1.292,2.402 2.776,4.88 4.452,7.428 1.674,2.55 3.628,5.641 5.861,9.272 1.468,2.521 3.613,6.329 6.435,11.427 0.234,-0.996 0.353,-2.052 0.353,-3.166 0,-0.293 0.058,-0.981 0.176,-2.067 0.118,-1.084 0.177,-1.861 0.177,-2.331 0,-0.469 -0.059,-1.216 -0.176,-2.243 -0.118,-1.025 -0.176,-1.568 -0.176,-1.627 v -5.102 c 0,-0.528 -0.146,-7.741 -0.436,-21.639 -0.233,-0.058 -0.495,-0.088 -0.786,-0.088 -0.523,0 -1.309,0.118 -2.355,0.352 -1.048,0.235 -1.774,0.383 -2.182,0.44 -0.757,-0.058 -1.775,-0.088 -3.055,-0.088 -0.058,-0.058 -0.451,-0.337 -1.178,-0.836 -0.729,-0.498 -1.062,-0.924 -1.004,-1.275 0,-0.409 0.146,-0.968 0.44,-1.671 0.82,-0.997 1.904,-1.584 3.254,-1.76 1.113,-0.058 2.229,-0.117 3.343,-0.176 2.99,-0.058 7.71,-0.381 14.161,-0.968 0.88,-0.116 1.817,0.132 2.815,0.748 0.996,0.615 1.495,1.275 1.495,1.979 -0.001,0.299 -0.12,0.563 -0.353,0.796 z" />
    </g>
  </g>
</svg>

<svg version="1.1" width="76" height="79" xmlns="http://www.w3.org/2000/svg" xmlns:xlink="http://www.w3.org/1999/xlink">
  <!-- Exported by Scratch - http://scratch.mit.edu/ -->
  <g id="ID0.8442582632414997">
    <g id="ID0.9731424255296588">
      <g id="ID0.1037183185108006">
        <path id="ID0.6886274544522166" fill="#00CCCC" d="M 75.310 13.754 C 75.310 16.684 74.260 19.454 72.350 21.664 C 70.640 23.754 68.450 25.354 65.950 26.384 C 66 28.654 66.070 31.424 66.160 34.644 L 66.160 39.474 C 66.430 45.784 66.550 48.304 66.600 49.304 C 66.650 49.684 66.680 50.074 66.690 50.474 C 66.750 53.544 66.660 57.934 66.420 63.904 C 66.400 64.364 66.350 64.824 66.270 65.274 C 65.840 67.844 64.670 70.344 62.790 72.694 C 60.300 75.794 56.870 77.764 53.110 78.234 C 52.650 78.294 52.190 78.324 51.730 78.324 C 49.560 78.324 48.060 77.764 45.580 76.834 C 42.540 75.694 40.180 73.274 39.090 70.254 C 36.610 71.184 34.040 71.554 31.470 71.344 C 30.250 71.284 28.450 71.374 26.160 71.594 C 25.820 71.634 24.760 71.794 22.370 72.324 C 22.250 72.354 22.130 72.374 22.010 72.394 C 19.550 72.864 17.170 73.044 15.010 72.954 C 14.850 72.944 14.680 72.934 14.520 72.914 C 7.560 72.304 0.530 67.584 0.530 58.444 C 0.530 56.904 0.780 55.384 1.270 53.904 C 1.580 52.994 2 52.134 2.530 51.324 C 3.790 49.404 6.340 46.544 10.820 45.124 L 10.820 43.404 C 10.820 42.594 10.910 41.784 11.090 41.004 L 10.930 38.314 C 10.930 38.244 10.920 38.174 10.920 38.094 C 10.870 36.874 10.790 35.784 10.660 34.854 C 10.620 34.564 10.590 34.274 10.580 33.984 C 10.540 33.414 10.510 32.794 10.470 32.114 C 4.230 30.534 0 25.104 0 18.064 C 0 14.764 1.350 11.734 4 9.074 C 6.050 7.004 8.360 5.704 10.860 5.184 C 12.660 4.804 14.690 4.714 17.960 4.864 C 18.290 4.864 18.950 4.834 20.150 4.764 C 21.800 4.654 22.950 4.604 23.790 4.604 C 26.740 4.604 29.170 5.714 30.920 6.734 C 33.520 3.684 37.020 1.794 41.070 1.264 C 41.360 1.234 41.640 1.204 41.930 1.184 L 45.260 1.014 C 45.380 1.004 45.500 1.004 45.620 1.004 C 48.310 0.944 52.760 0.644 58.860 0.084 C 62.190 -0.276 65.520 0.524 68.590 2.424 C 72.860 5.054 75.310 9.184 75.310 13.754 Z "/>
      </g>
    </g>
    <g id="ID0.6217719060368836">
      <path id="ID0.2878211308270693" fill="#FFFFFF" d="M 63.957 14.549 C 63.018 15.780 61.670 16.485 59.910 16.660 C 57.036 16.836 55.394 16.983 54.984 17.099 C 54.925 18.330 54.896 20.296 54.896 22.993 C 54.925 25.750 55.013 29.737 55.160 34.956 C 55.160 36.070 55.160 37.653 55.160 39.706 C 55.513 48.033 55.688 51.698 55.688 50.700 C 55.746 53.515 55.658 57.767 55.424 63.455 C 55.306 64.159 54.896 64.950 54.193 65.830 C 53.489 66.710 52.667 67.207 51.730 67.325 C 51.612 67.325 50.850 67.061 49.443 66.534 C 49.267 65.772 49.032 65.126 48.739 64.598 C 47.565 62.839 45.982 60.347 43.990 57.121 C 42.699 54.600 40.676 50.818 37.921 45.773 C 35.985 43.077 33.083 38.737 29.213 32.755 C 28.802 31.935 28.098 30.703 27.102 29.061 L 26.926 29.061 C 26.750 31.642 26.779 34.250 27.014 36.889 C 27.014 37.007 27.058 37.212 27.146 37.505 C 27.234 37.799 27.278 38.032 27.278 38.208 L 27.278 44.277 C 27.278 47.092 27.160 49.321 26.926 50.963 C 26.985 51.784 27.133 52.985 27.369 54.569 C 28.196 55.039 29.201 55.272 30.384 55.272 C 30.857 55.272 31.506 55.214 32.334 55.096 C 33.161 54.979 33.782 54.920 34.196 54.920 C 35.910 54.920 37.150 55.535 37.921 56.767 C 38.213 57.941 37.598 58.878 36.073 59.582 C 34.783 60.228 33.522 60.491 32.291 60.373 C 30.532 60.257 28.098 60.350 24.990 60.652 C 23.876 60.777 22.204 61.088 19.976 61.584 C 18.333 61.893 16.838 62.016 15.490 61.957 C 12.851 61.723 11.532 60.550 11.532 58.438 C 11.532 58.086 11.590 57.734 11.707 57.382 C 12.636 55.975 14.294 55.271 16.678 55.271 C 16.968 55.271 17.433 55.271 18.074 55.271 C 18.655 55.271 19.091 55.271 19.383 55.271 C 20.545 55.271 21.359 55.067 21.824 54.656 C 21.824 54.303 21.824 53.718 21.824 52.896 L 21.824 43.397 C 22.058 42.751 22.146 41.843 22.089 40.669 C 22.029 39.673 21.971 38.677 21.913 37.679 C 21.853 36.096 21.736 34.659 21.560 33.368 C 21.442 31.258 21.296 28.442 21.121 24.925 C 21.121 25.101 21.149 24.544 21.209 23.253 C 21.267 22.491 21.077 21.964 20.638 21.670 C 20.198 21.377 19.508 21.230 18.571 21.230 C 18.101 21.230 17.397 21.290 16.460 21.407 C 15.522 21.525 14.817 21.583 14.349 21.583 C 12.120 21.583 11.007 20.410 11.007 18.064 C 11.007 17.771 11.269 17.360 11.794 16.833 C 12.319 16.305 12.758 16.013 13.108 15.953 C 13.866 15.777 15.413 15.749 17.749 15.865 C 18.449 15.865 19.485 15.821 20.856 15.733 C 22.228 15.645 23.207 15.601 23.791 15.601 C 24.199 15.601 24.870 15.899 25.805 16.496 C 26.740 17.093 27.381 17.687 27.732 18.283 C 27.791 18.283 29.446 21.238 32.696 27.144 C 33.988 29.546 35.472 32.024 37.148 34.572 C 38.822 37.122 40.776 40.213 43.009 43.844 C 44.477 46.365 46.622 50.173 49.444 55.271 C 49.678 54.275 49.797 53.219 49.797 52.105 C 49.797 51.812 49.855 51.124 49.973 50.038 C 50.091 48.954 50.150 48.177 50.150 47.707 C 50.150 47.238 50.091 46.491 49.974 45.464 C 49.856 44.439 49.798 43.896 49.798 43.837 L 49.798 38.735 C 49.798 38.207 49.652 30.994 49.362 17.096 C 49.129 17.038 48.867 17.008 48.576 17.008 C 48.053 17.008 47.267 17.126 46.221 17.360 C 45.173 17.595 44.447 17.743 44.039 17.800 C 43.282 17.742 42.264 17.712 40.984 17.712 C 40.926 17.654 40.533 17.375 39.806 16.876 C 39.077 16.378 38.744 15.952 38.802 15.601 C 38.802 15.192 38.948 14.633 39.242 13.930 C 40.062 12.933 41.146 12.346 42.496 12.170 C 43.609 12.112 44.725 12.053 45.839 11.994 C 48.829 11.936 53.549 11.613 60 11.026 C 60.880 10.910 61.817 11.158 62.815 11.774 C 63.811 12.389 64.310 13.049 64.310 13.753 C 64.309 14.052 64.190 14.316 63.957 14.549 Z "/>
    </g>
  </g>
</svg>
